apps/i2021/public/icons/map.svg

<svg enable-background="new 0 0 512 512" viewBox="0 0 512 512" xmlns="http://www.w3.org/2000/svg"><path d="m477.867 384c0 65.707-47.787 119.467-106.667 119.467s-106.667-53.76-106.667-119.467 47.787-119.467 106.667-119.467 106.667 53.76 106.667 119.467" fill="#ffdd09"/><path d="m384 264.533c-2.56 0-4.267 0-6.827 0 56.32 4.267 100.694 55.467 100.694 119.467s-44.373 115.2-100.693 119.467h6.827c65.707 0 119.467-53.76 119.467-119.467s-53.761-119.467-119.468-119.467" fill="#fd9808"/><path d="m261.973 384c0-65.707 47.787-119.467 105.813-119.467 29.867 0 56.32-5.12 75.947 17.067v-273.067h-409.6v460.8h259.413c-19.626-21.333-31.573-52.053-31.573-85.333" fill="#ffdd09"/><path d="m381.44 264.533h2.56c33.28 0 64 13.653 85.333 35.84v-61.44l-89.6-87.04 89.6-88.747v-54.613h-54.613l-235.52 235.52v-235.52h-68.267v102.4h-102.4v68.267h102.4v133.12l-12.8 12.8-89.6 89.6v54.613h54.613l261.974-261.973z" fill="#54c9fd"/><path d="m443.733 8.533v272.213c9.387 5.12 17.92 11.947 25.6 19.627v-291.84z" fill="#fd9808"/><path d="m469.333 59.733-25.6 25.6v-76.8h25.6z" fill="#33a9f8"/><path d="m469.333 298.667-25.6-17.067v-68.267l25.6 17.067z" fill="#33a9f8"/><path d="m8.533 469.333h25.6v-460.8h-25.6z" fill="#fff"/><path d="m300.373 477.867h-291.84c-5.12 0-8.533-3.413-8.533-8.533v-162.134c0-5.12 3.413-8.533 8.533-8.533s8.533 3.413 8.533 8.533v153.6h264.534c-16.213-22.187-25.6-48.64-25.6-76.8 0-70.827 57.173-128 128-128 28.16 0 54.613 9.387 76.8 25.6v-264.533h-443.733v221.867c0 5.12-3.413 8.533-8.533 8.533s-8.534-3.414-8.534-8.534v-230.4c0-5.12 3.413-8.533 8.533-8.533h460.8c5.12 0 8.533 3.413 8.533 8.533v291.84c0 3.413-1.707 6.827-5.12 7.68-3.413 1.707-6.827.853-9.387-1.707-21.333-21.333-49.493-33.28-79.36-33.28-61.44 0-110.933 49.493-110.933 110.933 0 29.867 11.947 58.027 33.28 79.36 2.56 2.56 3.413 5.973 1.707 9.387s-4.266 5.121-7.68 5.121z"/><path d="m17.067 273.067c0-5.12-3.413-8.533-8.533-8.533s-8.534 3.413-8.534 8.533 3.413 8.533 8.533 8.533 8.534-3.413 8.534-8.533"/><path d="m384 298.667 19.627 59.733h57.173l-45.227 34.987 19.627 58.88-51.2-32.427-51.2 32.427 19.627-58.88-45.227-34.987h58.027z" fill="#fd9808"/><path d="m332.8 460.8c-1.707 0-3.413-.853-5.12-1.707-2.56-2.56-4.267-5.973-2.56-9.387l17.92-52.907-40.96-31.573c-2.56-2.56-4.267-5.973-2.56-9.387.853-3.413 4.267-5.973 7.68-5.973h51.2l17.067-53.76c.853-3.413 4.267-5.973 7.68-5.973 3.413 0 6.827 2.56 7.68 5.973l17.92 53.76h52.053c3.413 0 6.827 2.56 7.68 5.973s0 7.68-2.56 9.387l-40.107 31.574 17.067 52.907c.853 3.413 0 6.827-2.56 9.387s-6.827 2.56-9.387.853l-46.933-29.867-46.933 29.013c-.854 1.707-2.56 1.707-4.267 1.707zm-.853-93.867 25.6 19.627c2.56 2.56 4.267 5.973 2.56 9.387l-11.947 36.693 31.573-19.627c2.56-1.707 5.973-1.707 9.387 0l30.72 19.627-11.947-36.693c-.853-3.413 0-6.827 2.56-9.387l25.6-19.627h-32.427c-3.413 0-6.827-2.56-7.68-5.973l-11.946-34.987-11.093 34.987c-.853 3.413-4.267 5.973-8.533 5.973z"/><path d="m384 512c-70.827 0-128-57.173-128-128s57.173-128 128-128 128 57.173 128 128-57.173 128-128 128zm0-238.933c-61.44 0-110.933 49.493-110.933 110.933s49.493 110.933 110.933 110.933 110.933-49.493 110.933-110.933-49.493-110.933-110.933-110.933z"/><path d="m63.147 477.867h-54.614c-5.12 0-8.533-3.413-8.533-8.533v-54.614c0-2.56.853-4.267 2.56-5.973l99.84-99.84v-121.174h-93.867c-5.12 0-8.533-3.413-8.533-8.533v-68.267c0-5.12 3.413-8.533 8.533-8.533h93.867v-93.867c0-5.12 3.413-8.533 8.533-8.533h68.267c5.12 0 8.533 3.413 8.533 8.533v215.04l221.014-221.013c1.706-1.707 4.266-2.56 5.973-2.56h54.613c5.12 0 8.533 3.413 8.533 8.533v54.613c0 2.56-.853 4.267-2.56 5.973l-82.773 82.773 82.773 81.067c1.707 1.707 2.56 3.413 2.56 5.973v61.44c0 3.413-1.707 6.827-5.12 7.68-3.413 1.707-6.827.853-9.387-1.707-21.333-21.333-49.493-33.28-79.36-33.28-2.56 0-5.12-.853-6.827-2.56l-52.053-51.2-256 256c-1.706 1.708-4.266 2.562-5.972 2.562zm-46.08-17.067h41.813l259.413-259.413c3.413-3.413 8.533-3.413 11.947 0l55.467 54.613c27.307.853 52.907 9.387 74.24 25.6v-39.253l-87.04-84.48c-1.707-1.707-2.56-3.413-2.56-5.973s.853-4.267 2.56-5.973l87.893-87.041v-41.813h-42.667l-232.96 232.96c-2.56 2.56-5.973 3.413-9.387 1.707-3.413-.853-5.12-4.267-5.12-7.68v-226.987h-51.2v93.867c0 5.12-3.413 8.533-8.533 8.533h-93.866v51.2h93.867c5.12 0 8.533 3.413 8.533 8.533v133.12c0 2.56-.853 4.267-2.56 5.973l-99.84 99.84z"/></svg>

<?xml version="1.0" encoding="iso-8859-1"?>
<!-- Generator: Adobe Illustrator 19.0.0, SVG Export Plug-In . SVG Version: 6.00 Build 0)  -->
<svg version="1.1" id="Layer_1" xmlns="http://www.w3.org/2000/svg" xmlns:xlink="http://www.w3.org/1999/xlink" x="0px"
  y="0px" viewBox="0 0 512 512" style="enable-background:new 0 0 512 512;" xml:space="preserve">
  <path style="fill:#FFDD09;" d="M477.867,384c0,65.707-47.787,119.467-106.667,119.467S264.533,449.707,264.533,384
	S312.32,264.533,371.2,264.533S477.867,318.293,477.867,384" />
  <path style="fill:#FD9808;"
    d="M384,264.533c-2.56,0-4.267,0-6.827,0C433.493,268.8,477.867,320,477.867,384
	s-44.373,115.2-100.693,119.467c2.56,0,4.267,0,6.827,0c65.707,0,119.467-53.76,119.467-119.467S449.707,264.533,384,264.533" />
  <path style="fill:#FFDD09;" d="M261.973,384c0-65.707,47.787-119.467,105.813-119.467c29.867,0,56.32-5.12,75.947,17.067V8.533
	h-409.6v460.8h259.413C273.92,448,261.973,417.28,261.973,384" />
  <path style="fill:#54C9FD;" d="M381.44,264.533c0.853,0,1.707,0,2.56,0c33.28,0,64,13.653,85.333,35.84v-61.44l-89.6-87.04
	l89.6-88.747V8.533H414.72L179.2,244.053V8.533h-68.267v102.4H8.533V179.2h102.4v133.12l-12.8,12.8l-89.6,89.6v54.613h54.613
	L325.12,207.36L381.44,264.533z" />
  <path style="fill:#FD9808;" d="M443.733,8.533v272.213c9.387,5.12,17.92,11.947,25.6,19.627V8.533H443.733z" />
  <g>
    <polygon style="fill:#33A9F8;" points="469.333,59.733 443.733,85.333 443.733,8.533 469.333,8.533 	" />
    <polygon style="fill:#33A9F8;" points="469.333,298.667 443.733,281.6 443.733,213.333 469.333,230.4 	" />
  </g>
  <polygon style="fill:#FFFFFF;" points="8.533,469.333 34.133,469.333 34.133,8.533 8.533,8.533 " />
  <path d="M300.373,477.867H8.533c-5.12,0-8.533-3.413-8.533-8.533V307.2c0-5.12,3.413-8.533,8.533-8.533s8.533,3.413,8.533,8.533
	v153.6H281.6C265.387,438.613,256,412.16,256,384c0-70.827,57.173-128,128-128c28.16,0,54.613,9.387,76.8,25.6V17.067H17.067
	v221.867c0,5.12-3.413,8.533-8.533,8.533S0,244.053,0,238.933V8.533C0,3.413,3.413,0,8.533,0h460.8c5.12,0,8.533,3.413,8.533,8.533
	v291.84c0,3.413-1.707,6.827-5.12,7.68c-3.413,1.707-6.827,0.853-9.387-1.707c-21.333-21.333-49.493-33.28-79.36-33.28
	c-61.44,0-110.933,49.493-110.933,110.933c0,29.867,11.947,58.027,33.28,79.36c2.56,2.56,3.413,5.973,1.707,9.387
	C306.347,476.16,303.787,477.867,300.373,477.867z" />
  <path d="M17.067,273.067c0-5.12-3.413-8.533-8.533-8.533S0,267.947,0,273.067s3.413,8.533,8.533,8.533
	S17.067,278.187,17.067,273.067" />
  <polygon style="fill:#FD9808;" points="384,298.667 403.627,358.4 460.8,358.4 415.573,393.387 435.2,452.267 384,419.84
	332.8,452.267 352.427,393.387 307.2,358.4 365.227,358.4 " />
  <path d="M332.8,460.8c-1.707,0-3.413-0.853-5.12-1.707c-2.56-2.56-4.267-5.973-2.56-9.387l17.92-52.907l-40.96-31.573
	c-2.56-2.56-4.267-5.973-2.56-9.387c0.853-3.413,4.267-5.973,7.68-5.973h51.2l17.067-53.76c0.853-3.413,4.267-5.973,7.68-5.973l0,0
	c3.413,0,6.827,2.56,7.68,5.973l17.92,53.76H460.8c3.413,0,6.827,2.56,7.68,5.973c0.853,3.413,0,7.68-2.56,9.387L425.813,396.8
	l17.067,52.907c0.853,3.413,0,6.827-2.56,9.387s-6.827,2.56-9.387,0.853L384,430.08l-46.933,29.013
	C336.213,460.8,334.507,460.8,332.8,460.8z M331.947,366.933l25.6,19.627c2.56,2.56,4.267,5.973,2.56,9.387L348.16,432.64
	l31.573-19.627c2.56-1.707,5.973-1.707,9.387,0l30.72,19.627l-11.947-36.693c-0.853-3.413,0-6.827,2.56-9.387l25.6-19.627h-32.427
	c-3.413,0-6.827-2.56-7.68-5.973L384,325.973l-11.093,34.987c-0.853,3.413-4.267,5.973-8.533,5.973H331.947z" />
  <path
    d="M384,512c-70.827,0-128-57.173-128-128s57.173-128,128-128s128,57.173,128,128S454.827,512,384,512z M384,273.067
	c-61.44,0-110.933,49.493-110.933,110.933S322.56,494.933,384,494.933S494.933,445.44,494.933,384S445.44,273.067,384,273.067z" />
  <path d="M63.147,477.867H8.533c-5.12,0-8.533-3.413-8.533-8.533V414.72c0-2.56,0.853-4.267,2.56-5.973l99.84-99.84V187.733H8.533
	C3.413,187.733,0,184.32,0,179.2v-68.267c0-5.12,3.413-8.533,8.533-8.533H102.4V8.533c0-5.12,3.413-8.533,8.533-8.533H179.2
	c5.12,0,8.533,3.413,8.533,8.533v215.04L408.747,2.56C410.453,0.853,413.013,0,414.72,0h54.613c5.12,0,8.533,3.413,8.533,8.533
	v54.613c0,2.56-0.853,4.267-2.56,5.973l-82.773,82.773l82.773,81.067c1.707,1.707,2.56,3.413,2.56,5.973v61.44
	c0,3.413-1.707,6.827-5.12,7.68c-3.413,1.707-6.827,0.853-9.387-1.707c-21.333-21.333-49.493-33.28-79.36-33.28
	c-2.56,0-5.12-0.853-6.827-2.56l-52.053-51.2l-256,256C67.413,477.013,64.853,477.867,63.147,477.867z M17.067,460.8H58.88
	l259.413-259.413c3.413-3.413,8.533-3.413,11.947,0L385.707,256c27.307,0.853,52.907,9.387,74.24,25.6v-39.253l-87.04-84.48
	c-1.707-1.707-2.56-3.413-2.56-5.973s0.853-4.267,2.56-5.973L460.8,58.88V17.067h-42.667l-232.96,232.96
	c-2.56,2.56-5.973,3.413-9.387,1.707c-3.413-0.853-5.12-4.267-5.12-7.68V17.067h-51.2v93.867c0,5.12-3.413,8.533-8.533,8.533H17.067
	v51.2h93.867c5.12,0,8.533,3.413,8.533,8.533v133.12c0,2.56-0.853,4.267-2.56,5.973l-99.84,99.84V460.8z" />
</svg>
